X:531
T:Reel 531
M:4/4
K:Gmaj
L:1/8
 (3dfg | (3edc' e>f  (3def |g>b (3fga b>gd>B|c>d (3efg c'>a (3gfg | (3c'ba b>g fgfe||e>d (3fga b>g (3agf |g2 (3gfe d2|fga|g>G (3BGB b>d'b2|g>f (3fed e>B (3BAB |e>a (3aba c'>a (3agf |a>g (3fgf e2d2| (3efg g>f g>B (3BAB |b>d' (3d'c'd' b>g (3gfg |e2 (3def gbaf| (3efe d>B d>B (3dAf |
